public/icons/js.svg

<svg width="41" height="41" viewBox="0 0 41 41" fill="none" xmlns="http://www.w3.org/2000/svg">
<rect x="0.722656" y="0.117676" width="40" height="40" rx="4" fill="#141414"/>
<g opacity="0.3">
<path d="M28.6174 33.2127L30.2449 32.1358C30.3725 32.5365 31.1801 33.4882 32.2004 33.4882C33.2206 33.4882 33.6943 32.9309 33.6943 32.5615C33.6943 31.5548 32.6525 31.1998 32.1522 31.0293C32.0706 31.0016 32.0034 30.9787 31.9575 30.9587C31.9339 30.9484 31.8983 30.9348 31.8526 30.9173C31.2961 30.7047 29.2429 29.9203 29.2429 27.6465C29.2429 25.142 31.6599 24.854 32.2065 24.854C32.564 24.854 34.2834 24.8978 35.1397 26.507L33.5607 27.6089C33.2146 26.9077 32.6394 26.676 32.2854 26.676C31.4109 26.676 31.2287 27.3171 31.2287 27.6089C31.2287 28.4278 32.1788 28.7948 32.9811 29.1047C33.191 29.1858 33.3907 29.2629 33.5607 29.3433C34.4352 29.7565 35.7227 30.4327 35.7227 32.5615C35.7227 33.6278 34.8283 35.354 32.5769 35.354C29.5526 35.354 28.751 33.5383 28.6174 33.2127Z" fill="white"/>
<path d="M20.7227 33.4265L22.419 32.3502C22.5519 32.7507 23.0684 33.4891 23.8178 33.4891C24.5672 33.4891 24.9508 32.7194 24.9508 32.3502V25.0909H27.037V32.3502C27.0708 33.3514 26.5155 35.354 24.0647 35.354C21.8113 35.354 20.8746 34.0148 20.7227 33.4265Z" fill="white"/>
</g>
</svg>

<svg width="41" height="41" fill="none" xmlns="http://www.w3.org/2000/svg"><rect x=".723" y=".118" width="40" height="40" rx="4" fill="#141414"/><g opacity=".3" fill="#fff"><path d="m28.617 33.213 1.628-1.077c.127.4.935 1.352 1.955 1.352s1.494-.557 1.494-.926c0-1.007-1.041-1.362-1.542-1.533a2.85 2.85 0 0 1-.195-.07l-.104-.042c-.557-.212-2.61-.997-2.61-3.27 0-2.505 2.417-2.793 2.963-2.793.358 0 2.077.044 2.934 1.653l-1.58 1.102c-.345-.701-.92-.933-1.275-.933-.874 0-1.056.641-1.056.933 0 .819.95 1.186 1.752 1.496.21.08.41.158.58.238.874.413 2.162 1.09 2.162 3.219 0 1.066-.895 2.792-3.146 2.792-3.024 0-3.826-1.816-3.96-2.141ZM20.723 33.426l1.696-1.076c.133.4.65 1.14 1.399 1.14.75 0 1.133-.77 1.133-1.14v-7.26h2.086v7.26c.034 1.001-.521 3.004-2.972 3.004-2.254 0-3.19-1.34-3.342-1.928Z"/></g></svg>
